icons/outline/tilt-shift-off.svg

<!--
category: Photography
tags: [filter, shift, photography, photo]
version: "1.67"
unicode: "f1b3"
-->
<svg
  xmlns="http://www.w3.org/2000/svg"
  width="24"
  height="24"
  viewBox="0 0 24 24"
  fill="none"
  stroke="currentColor"
  stroke-width="2"
  stroke-linecap="round"
  stroke-linejoin="round"
>
  <path d="M8.56 3.69a9 9 0 0 0 -.577 .263m-4.293 4.607a9 9 0 0 0 -.69 3.44m.69 3.44a9 9 0 0 0 1.95 2.92m2.92 1.95a9 9 0 0 0 3.44 .69m3.44 -.69a9 9 0 0 0 2.92 -1.95m1.95 -2.92a9 9 0 0 0 .69 -3.44m-.69 -3.44a9 9 0 0 0 -1.95 -2.92m-2.92 -1.95a9 9 0 0 0 -3.44 -.69m-1.43 7.602a2 2 0 0 0 2.862 2.795m-10.432 -10.397l18 18" />
</svg>

<!--
category: Photography
tags: [filter, shift, photography, photo]
version: "1.67"
unicode: "f1b3"
-->
<svg
  xmlns="http://www.w3.org/2000/svg"
  width="24"
  height="24"
  viewBox="0 0 24 24"
  fill="none"
  stroke="currentColor"
  stroke-width="2"
  stroke-linecap="round"
  stroke-linejoin="round"
>
    <path d="M8.56 3.69a9 9 0 0 0 -.577 .263M3.69 8.56a9 9 0 0 0 -.69 3.44M3.69 15.44a9 9 0 0 0 1.95 2.92M8.56 20.31a9 9 0 0 0 3.44 .69M15.44 20.31a9 9 0 0 0 2.92 -1.95M20.31 15.44a9 9 0 0 0 .69 -3.44M20.31 8.56a9 9 0 0 0 -1.95 -2.92M15.44 3.69a9 9 0 0 0 -3.44 -.69M10.57 10.602a2 2 0 0 0 2.862 2.795M3 3l18 18" />
</svg>
